X:1
T:Dryden Lake
C:John Wobus
S:John Wobus composed 3/22/2004
M:2/4
R:reel
K:D
|:DFAB ADFA | BABc dBAF | DFAB ADFA | B2AF EGFE |
 DFAB ADFA | BABc dAdf | e3f eAce | fdec d4 :|
|: a3f g3e | fgfe dcdf |e3f eAfA | gAfA eAce |
 a3f g3e | fgfe dcdf |e3f eAce | fdec d4 :|
W:Copyright 2004 John Wobus, PGTPPCATPL AORR
